X:224
T:Le poteau blanc
M:2/2
L:1/8
K:A
AcBA c2cB | Aaga (3fgf e2 | AcBA c2BA | GBEB GBE2 | 
AcBA c2cB | Aaga (3fgf ec | eagf edcB |1 Aaec A2E2 :|2 A2a2 A4 |:
ABcd e2cA | Bcde f2ed | cefg a2gf | 
eagf edcB |1 Aaga fdBG A2E2 :|2 A2a2 A2E2 |]

